X:220
T:no name
R:jig
Z:id:hn-jig-220
M:6/8
K:Ador
~A3 BAB|eBd aeg|~A3 cde|dcA AGE|
~A3 BAB|eBd aeg|~a3 ged|BAG ~A3|
~A3 BAB|eBd aeg|~a3 gAe|~a3 gAe|
~A3 BAB|eBd aeg|~a3 ged|BAG ~A3||
|:~e3 aeg|eag edB|~e3 aeg|eaf ~g3|
~e3 aeg|eag edB|~a3 ged|BAG ~A3:|

